img/header__order.svg

<svg width="30" height="30" viewBox="0 0 30 30" fill="none" xmlns="http://www.w3.org/2000/svg">
<path d="M1.67871 29.4475C1.67871 29.7113 1.89246 29.9225 2.15496 29.9225H27.8462C28.11 29.9225 28.3225 29.7113 28.3225 29.4475L25.8225 8.44875C25.8225 8.1875 25.6112 7.97625 25.3525 7.9725L20.5362 7.93375V5.5975C20.5362 2.51125 18.0275 0 14.9412 0C11.855 0 9.34496 2.51125 9.34496 5.5975V7.80875L4.65996 7.76875C4.52996 7.77 4.40996 7.8175 4.32121 7.905C4.23121 7.995 4.17871 8.1175 4.17871 8.245L1.67871 29.4475ZM10.2975 5.5975C10.2975 3.0375 12.38 0.9525 14.94 0.9525C17.5012 0.9525 19.5837 3.03625 19.5837 5.5975V7.92125L10.2962 7.8175V5.5975H10.2975Z" fill="#010101"/>
<path d="M19.9386 10.9352C20.6538 10.9352 21.2336 10.3554 21.2336 9.64021C21.2336 8.92501 20.6538 8.34521 19.9386 8.34521C19.2233 8.34521 18.6436 8.92501 18.6436 9.64021C18.6436 10.3554 19.2233 10.9352 19.9386 10.9352Z" fill="white"/>
<path d="M9.76863 10.9352C10.4838 10.9352 11.0636 10.3554 11.0636 9.64021C11.0636 8.92501 10.4838 8.34521 9.76863 8.34521C9.05342 8.34521 8.47363 8.92501 8.47363 9.64021C8.47363 10.3554 9.05342 10.9352 9.76863 10.9352Z" fill="white"/>
</svg>

<svg width="30" height="30" fill="none" xmlns="http://www.w3.org/2000/svg"><path d="M1.679 29.448c0 .263.213.474.476.474h25.691a.474.474 0 00.477-.474l-2.5-21a.477.477 0 00-.47-.476l-4.817-.038V5.597A5.602 5.602 0 0014.941 0a5.603 5.603 0 00-5.596 5.598v2.21l-4.685-.04a.484.484 0 00-.339.137.483.483 0 00-.142.34l-2.5 21.203zm8.618-23.85A4.65 4.65 0 0114.94.952a4.65 4.65 0 014.644 4.646V7.92l-9.288-.104v-2.22h.002z" fill="#010101"/><path d="M19.939 10.935a1.295 1.295 0 100-2.59 1.295 1.295 0 000 2.59zm-10.17 0a1.295 1.295 0 100-2.59 1.295 1.295 0 000 2.59z" fill="#fff"/></svg>
